icon/ir/open-select-hand-gesture.svg

<svg stroke-width="1.5" viewBox="0 0 24 24" fill="none" xmlns="http://www.w3.org/2000/svg" height="1em" width="1em">
  <path d="M8 14.5714L6.17716 12.8354C5.53522 12.224 4.51329 12.2705 3.92953 12.9377V12.9377C3.40196 13.5406 3.41749 14.4453 3.96544 15.0298L9.90739 21.3679C10.2855 21.7712 10.8127 22 11.3655 22C12.4505 22 14.2343 22 16 22C18.4 22 20 20 20 18C20 18 20 18 20 18C20 18 20 11.1429 20 9.42859" stroke="currentColor" stroke-linecap="round" stroke-linejoin="round"/>
  <path d="M17 9.99995C17 9.99995 17 9.87483 17 9.42852C17 7.1428 20 7.1428 20 9.42852" stroke="currentColor" stroke-linecap="round" stroke-linejoin="round"/>
  <path d="M14 9.99998C14 9.99998 14 9.17832 14 8.2857C14 5.99998 17 5.99998 17 8.2857C17 8.50885 17 9.2054 17 9.42855C17 9.87487 17 9.99998 17 9.99998" stroke="currentColor" stroke-linecap="round" stroke-linejoin="round"/>
  <path d="M11 10.0001C11 10.0001 11 8.61584 11 7.50005C11 5.21434 14 5.21434 14 7.50005C14 7.50005 14 7.50005 14 7.50005C14 7.50005 14 8.06261 14 8.28577C14 9.17839 14 10.0001 14 10.0001" stroke="currentColor" stroke-linecap="round" stroke-linejoin="round"/>
  <path d="M8 14.5714V3.5C8 2.67157 8.67157 2 9.5 2V2C10.3284 2 11 2.67056 11 3.49899C11 4.68968 11 6.34156 11 7.5C11 8.61578 11 10 11 10" stroke="currentColor" stroke-linecap="round" stroke-linejoin="round"/>
</svg>

<svg width="24" height="24" stroke-width="1.5" fill="none" xmlns="http://www.w3.org/2000/svg"><path d="m8 14.571-1.823-1.736a1.558 1.558 0 0 0-2.247.103v0a1.558 1.558 0 0 0 .035 2.092l5.942 6.338c.379.403.906.632 1.459.632H16c2.4 0 4-2 4-4 0 0 0 0 0 0V9.429" stroke="currentColor" stroke-linecap="round" stroke-linejoin="round"/><path d="M17 10v-.571c0-2.286 3-2.286 3 0M14 10V8.286C14 6 17 6 17 8.286V10M11 10V7.5c0-2.286 3-2.286 3 0 0 0 0 0 0 0V10M8 14.571V3.5A1.5 1.5 0 0 1 9.5 2v0c.828 0 1.5.67 1.5 1.499V10" stroke="currentColor" stroke-linecap="round" stroke-linejoin="round"/></svg>
